packages/icons/web/circle_help_filled_small.svg

<svg width="24" height="24" viewBox="0 0 24 24" fill="none" xmlns="http://www.w3.org/2000/svg">
<path fill-rule="evenodd" clip-rule="evenodd" d="M12 4H12.0071C16.4209 4 20 7.58265 20 12.0002C20 16.4178 16.4209 20 12.0071 20H11.9929C7.57914 20 4 16.4178 4 12.0002C4 7.58265 7.57914 4 11.9929 4H12ZM11.4465 8.9938C11.6379 8.90575 11.8592 8.86376 12.0843 8.87759C12.3093 8.89142 12.5185 8.95981 12.6892 9.0671C12.8593 9.17409 12.9791 9.31158 13.0487 9.45451C13.1176 9.59599 13.1388 9.74434 13.1165 9.8871C13.0941 10.0307 13.0261 10.178 12.905 10.3099C12.7831 10.4427 12.6122 10.5537 12.4043 10.6191C12.0541 10.7291 11.7339 10.9382 11.4984 11.2343C11.2617 11.532 11.1249 11.9016 11.125 12.2923V12.2926V12.2928V13C11.125 13.4832 11.5168 13.875 12 13.875C12.4832 13.875 12.875 13.4832 12.875 13V12.3166C12.8837 12.3091 12.9007 12.2974 12.929 12.2886C13.4125 12.1366 13.8525 11.8656 14.1942 11.4934C14.5367 11.1203 14.7672 10.6591 14.8456 10.157C14.924 9.65416 14.8444 9.14469 14.6219 8.68804C14.4001 8.23284 14.0491 7.85492 13.6205 7.58554C13.1925 7.31646 12.6981 7.16201 12.1916 7.13088C11.6851 7.09975 11.175 7.19242 10.7152 7.40391C10.2551 7.61553 9.85523 7.94195 9.56957 8.35914C9.28304 8.77761 9.12511 9.26843 9.125 9.77721C9.1249 10.2605 9.51656 10.6523 9.99981 10.6524C10.4831 10.6525 10.8749 10.2608 10.875 9.77758C10.875 9.63456 10.9188 9.48615 11.0135 9.34784C11.1091 9.20824 11.2553 9.08174 11.4465 8.9938ZM12.875 15.5C12.875 15.0168 12.4832 14.625 12 14.625C11.5168 14.625 11.125 15.0168 11.125 15.5V16C11.125 16.4832 11.5168 16.875 12 16.875C12.4832 16.875 12.875 16.4832 12.875 16V15.5Z" fill="#212933"/>
</svg>

<svg width="24" height="24" fill="none" xmlns="http://www.w3.org/2000/svg">
    <path fill-rule="evenodd" clip-rule="evenodd" d="M12 4h.007C16.421 4 20 7.583 20 12c0 4.418-3.58 8-7.993 8h-.014C7.579 20 4 16.418 4 12c0-4.417 3.58-8 7.993-8H12zm-.553 4.994a1.338 1.338 0 011.242.073.97.97 0 01.36.388c.069.141.09.29.068.432a.812.812 0 01-.212.423 1.143 1.143 0 01-.5.31c-.35.11-.671.318-.907.614a1.698 1.698 0 00-.373 1.058V13a.875.875 0 001.75 0v-.683a.15.15 0 01.054-.028 2.891 2.891 0 001.265-.796c.343-.373.573-.834.652-1.336a2.475 2.475 0 00-.224-1.469 2.712 2.712 0 00-1.002-1.102 3.088 3.088 0 00-2.905-.182 2.8 2.8 0 00-1.145.955c-.287.419-.445.91-.445 1.418a.875.875 0 101.75 0c0-.142.044-.29.139-.43.095-.139.241-.265.433-.353zm1.428 6.506a.875.875 0 00-1.75 0v.5a.875.875 0 001.75 0v-.5z" fill="currentColor"/>
</svg>
